logos/surrealdb-icon.svg

<?xml version="1.0" encoding="UTF-8"?>
<svg width="256px" height="299px" viewBox="0 0 256 299" version="1.1" xmlns="http://www.w3.org/2000/svg" preserveAspectRatio="xMidYMid">
    <title>SurrealDB</title>
    <defs>
        <linearGradient x1="31.0469515%" y1="11.7049903%" x2="68.9568365%" y2="88.3026737%" id="surrealDBLinearGradient-1">
            <stop stop-color="#FF00A0" offset="0%"></stop>
            <stop stop-color="#9600FF" offset="100%"></stop>
        </linearGradient>
    </defs>
    <g>
        <path d="M128,78.567619 L199.100952,117.942857 L199.100952,102.15619 L128,62.872381 C117.424762,68.7238095 66.3161905,96.9752381 56.8990476,102.15619 C65.6457143,107.001905 157.500952,157.744762 213.333333,188.586667 L213.333333,204.312381 C205.744762,208.518095 128,251.459048 128,251.459048 C106.727619,239.725714 63.9085714,216.07619 42.6666667,204.312381 L42.6666667,157.165714 L128,204.312381 L142.232381,196.449524 L28.4342857,133.607619 L28.4342857,212.205714 L128,267.184762 C137.813333,261.76 220.281905,216.198095 227.535238,212.175238 L227.535238,180.754286 L85.3333333,102.15619 L128,78.567619 Z M28.4342857,86.4304762 L28.4342857,117.881905 L170.63619,196.48 L127.969524,220.068571 L56.8685714,180.693333 L56.8685714,196.48 L127.969524,235.76381 C138.544762,229.912381 189.653333,201.660952 199.070476,196.48 C190.32381,191.634286 98.4990476,140.891429 42.6666667,110.019048 L42.6666667,94.2933333 C50.2552381,90.087619 128,47.1466667 128,47.1466667 C149.241905,58.9104762 192.060952,82.56 213.333333,94.2933333 L213.333333,141.44 L128,94.2933333 L113.767619,102.15619 L227.535238,165.028571 L227.535238,86.4304762 L128,31.4209524 C118.15619,36.8761905 35.7180952,82.4380952 28.4342857,86.4304762 Z M128,0 L0,70.7352381 L0,227.900952 L128,298.63619 L256,227.931429 L256,70.7352381 L128,0 Z M241.737143,220.038095 L128,282.910476 L14.232381,220.038095 L14.232381,78.5980952 L128,15.7257143 L241.767619,78.5980952 L241.737143,220.038095 Z" fill="url(#surrealDBLinearGradient-1)"></path>
    </g>
</svg>

<svg preserveAspectRatio="xMidYMid" viewBox="0 0 256 299" xmlns="http://www.w3.org/2000/svg">
  <defs>
    <linearGradient id="surrealdb-icon_svg__a" x1="31.047%" x2="68.957%" y1="11.705%" y2="88.303%">
      <stop offset="0%" stop-color="#FF00A0"/>
      <stop offset="100%" stop-color="#9600FF"/>
    </linearGradient>
  </defs>
  <path fill="url(#surrealdb-icon_svg__a)" d="m128 78.568 71.101 39.375v-15.787L128 62.872c-10.575 5.852-61.684 34.103-71.101 39.284 8.747 4.846 100.602 55.589 156.434 86.43v15.726C205.745 208.518 128 251.46 128 251.46a76502.912 76502.912 0 0 1-85.333-47.147v-47.146L128 204.312l14.232-7.862-113.798-62.842v78.598L128 267.185c9.813-5.425 92.282-50.987 99.535-55.01v-31.42l-142.202-78.6L128 78.568ZM28.434 86.43v31.452l142.202 78.598-42.666 23.589-71.101-39.376v15.787l71.1 39.284c10.576-5.852 61.684-34.103 71.101-39.284-8.746-4.846-100.571-55.589-156.403-86.461V94.293C50.255 90.088 128 47.147 128 47.147a76501.239 76501.239 0 0 0 85.333 47.146v47.147L128 94.293l-14.232 7.863 113.767 62.873V86.43L128 31.421c-9.844 5.455-92.282 51.017-99.566 55.01ZM128 0 0 70.735v157.166l128 70.735 128-70.705V70.735L128 0Zm113.737 220.038L128 282.91 14.232 220.038V78.598L128 15.726l113.768 62.872-.03 141.44Z"/>
</svg>
